Numix-Circle/48x48/apps/steam_icon_219740.svg

<svg xmlns="http://www.w3.org/2000/svg" xmlns:xlink="http://www.w3.org/1999/xlink" viewBox="0 0 48 48" width="48" height="48">
 <defs>
  <linearGradient id="0">
   <stop stop-color="#bebebe"/>
   <stop offset="1" stop-color="#dedede"/>
  </linearGradient>
  <linearGradient y2="268.33" x2="0" y1="279.1" gradientTransform="matrix(3.9162401,0,0,3.9162401,-475.79198,-1047.9749)" gradientUnits="userSpaceOnUse" id="1" xlink:href="#0"/>
  <clipPath>
   <path d="m -44.745763,-238.37288 c -5.963141,12.60169 -8.333683,26.87939 -6.762772,40.73196 1.570911,13.85258 7.078382,27.23689 15.711925,38.18329 4.969232,6.30045 10.907338,11.76297 16.237357,17.76129 5.330019,5.99832 10.1459393,12.72904 12.2372191,20.476 2.7998655,10.37186 0.4410371,21.418244 -2.8422901,31.647342 -3.283328,10.229097 -7.518213,20.30303 -8.54754,30.996727 -1.258036,13.069761 2.378656,26.134744 7.197693,38.348596 4.8190367,12.213853 10.85955798,23.9640216 14.7684083,36.498861 1.731001,5.550947 3.0410001,11.274075 3.2542373,17.084746 0.4250023,11.581229 -3.49122,22.830163 -7.34713014,33.758908 -3.85591016,10.928744 -7.75596106,22.186589 -7.29693766,33.76652 0.4256698,10.73851 4.7364845,21.24268 11.793009,29.34837 7.0565242,8.10569 16.7861272,13.79434 27.2578382,16.21095 8.943776,2.064 18.382193,1.77891 27.267286,-0.52464 8.885093,-2.30355 17.215174,-6.59952 24.439381,-12.26186 14.448415,-11.32467 24.229019,-27.89029 29.511829,-45.471442 10.56562,-35.162299 3.94532,-72.817894 0.13744,-109.33528 -2.39479,-22.965849 -3.63949,-46.065386 -3.25424,-69.152543 0.4783,-28.663435 3.46601,-57.257595 3.39386,-85.924935 -0.0721,-28.66734 -3.34523,-57.82241 -14.783691,-84.10896 -5.642128,-12.96609 -13.725788,-25.58081 -26.033899,-32.54238 -11.841782,-6.69781 -26.445275,-7.34508 -39.621537,-3.95767 -13.176261,3.38742 -25.1093635,10.50106 -36.0394796,18.60174 -15.3453564,11.37297 -29.1141924,24.87005 -40.7907584,39.98567"/>
  </clipPath>
  <clipPath>
   <rect width="128.54" height="418.98" x="-26.847" y="-292.07" rx="5.926" opacity="0.7"/>
  </clipPath>
 </defs>
 <rect height="45.999" rx="23" y="1" x="1" width="45.999" opacity="0.5" fill="#ffffff" fill-rule="evenodd"/>
 <rect height="41.999" rx="20.998" y="3" x="3" width="41.999" fill-rule="evenodd" fill="url(#1)"/>
 <text x="56.745" y="21.13" font-family="Sans" word-spacing="0" line-height="125%" letter-spacing="0" font-size="4"><tspan x="56.745" y="21.13"/>
 </text>
 <path d="M 24 9.03125 C 24.259133 9.9748905 23.798117 10.241835 23.46875 10.625 C 24.145939 10.953211 24.55119 11.198854 24.59375 10.5 C 24.541111 10.157769 24.333184 10.187023 24 9.03125 z M 20.875 11.40625 C 21.916167 12.262223 22.813286 13.157358 21.875 14.4375 C 21.139045 15.039538 19.613908 15.413987 19.65625 13.5625 C 19.278314 14.181546 19.272313 14.954132 19.46875 15.8125 C 19.52183 16.026943 19.614868 16.197044 19.71875 16.34375 C 21.514432 17.673847 21.612319 17.947681 21.875 18.46875 C 23.537965 21.433302 20.894923 23.536172 20.71875 23.8125 L 20.59375 24.0625 C 22.488442 26.844519 24.288004 26.627338 25.40625 26.625 C 26.721643 26.519541 29.828957 24.632755 28.4375 21 C 28.4016 22.913269 26.852096 21.885009 26.53125 21.25 C 26.254982 20.946818 25.854705 18.538901 27.09375 18.46875 C 27.401237 18.323618 26.849082 16.1583 25.03125 15.125 C 27.562107 17.060268 24.138355 20.030712 23.28125 17 C 23.23091 16.822 23.289569 12.500537 25.15625 13.5 C 24.265252 12.03099 22.868414 11.293534 20.875 11.40625 z M 26.625 11.40625 C 25.484349 11.92197 25.934799 14.71936 26.6875 14.78125 C 26.401749 14.034647 26.077185 13.630244 26.625 11.40625 z M 19.46875 16.84375 C 19.270638 17.959072 19.256026 19.128224 19.71875 19.625 C 20.267107 20.27354 20.598965 20.119816 20.96875 20.09375 C 21.130544 20.01091 20.991508 19.894852 20.78125 19.75 C 20.80716 19.69658 21.035786 19.6704 21.21875 19.65625 C 21.28605 19.58986 21.34847 19.534604 21.3125 19.40625 C 21.28283 19.50512 21.196187 19.557295 21.0625 19.59375 L 19.46875 16.84375 z M 28.40625 19.9375 C 28.348031 19.968481 28.331294 20.07412 28.375 20.15625 C 28.418706 20.23838 28.504281 20.280981 28.5625 20.25 C 28.620719 20.219019 28.606206 20.11338 28.5625 20.03125 C 28.518794 19.94912 28.464469 19.906519 28.40625 19.9375 z M 20.96875 25.59375 C 20.94308 25.59885 21.677803 26.534695 21.65625 26.46875 C 21.64675 26.43959 21.944503 26.110003 22 26.15625 C 21.738456 26.007793 21.369616 25.811559 20.96875 25.59375 z " fill="#ff9933"/>
 <path d="M 23.90625 20.84375 C 23.396805 20.877645 23.1188 21.207492 22.96875 21.65625 L 24.8125 21.8125 C 24.765907 21.376935 24.575682 20.992673 23.90625 20.84375 z M 22.8125 22.6875 C 22.803977 22.805269 22.787172 22.910676 22.78125 23.03125 L 22.78125 23.21875 L 24.78125 23.3125 L 24.8125 22.96875 C 24.808691 22.931333 24.81355 22.883979 24.8125 22.84375 L 22.8125 22.6875 z M 22.75 23.8125 L 22.71875 24.4375 L 24.625 24.53125 L 24.6875 23.90625 L 22.75 23.8125 z M 22.6875 24.75 L 22.0625 38.78125 C 22.702963 38.395751 23.00969 36.879782 23.375 35.53125 L 24.59375 24.84375 L 22.6875 24.75 z " fill="#2f2f2f"/>
</svg>

<?xml version="1.0" encoding="UTF-8" standalone="no"?>
<svg
   xmlns:dc="http://purl.org/dc/elements/1.1/"
   xmlns:cc="http://creativecommons.org/ns#"
   xmlns:rdf="http://www.w3.org/1999/02/22-rdf-syntax-ns#"
   xmlns:svg="http://www.w3.org/2000/svg"
   xmlns="http://www.w3.org/2000/svg"
   xmlns:sodipodi="http://sodipodi.sourceforge.net/DTD/sodipodi-0.dtd"
   xmlns:inkscape="http://www.inkscape.org/namespaces/inkscape"
   viewBox="0 0 48 48"
   id="svg2"
   version="1.1"
   inkscape:version="0.48.4 r9939"
   width="100%"
   height="100%"
   sodipodi:docname="steam_icon_219740.svg">
  <metadata
     id="metadata71">
    <rdf:RDF>
      <cc:Work
         rdf:about="">
        <dc:format>image/svg+xml</dc:format>
        <dc:type
           rdf:resource="http://purl.org/dc/dcmitype/StillImage" />
      </cc:Work>
    </rdf:RDF>
  </metadata>
  <sodipodi:namedview
     pagecolor="#ffffff"
     bordercolor="#666666"
     borderopacity="1"
     objecttolerance="10"
     gridtolerance="10"
     guidetolerance="10"
     inkscape:pageopacity="0"
     inkscape:pageshadow="2"
     inkscape:window-width="640"
     inkscape:window-height="480"
     id="namedview69"
     showgrid="false"
     inkscape:zoom="4.9166667"
     inkscape:cx="24"
     inkscape:cy="22.372881"
     inkscape:window-x="319"
     inkscape:window-y="244"
     inkscape:window-maximized="0"
     inkscape:current-layer="svg2" />
  <defs
     id="defs4">
    <linearGradient
       id="1"
       gradientUnits="userSpaceOnUse"
       y1="15"
       x2="0"
       y2="11"
       gradientTransform="matrix(15.333333,0,0,11.5,414.99999,-125.5)">
      <stop
         id="stop7" />
      <stop
         offset="1"
         stop-opacity="0"
         id="stop9" />
    </linearGradient>
    <clipPath
       id="clipPath-780286048">
      <g
         transform="translate(0,-1004.3622)"
         id="g12">
        <path
           d="m -24 13 c 0 1.105 -0.672 2 -1.5 2 -0.828 0 -1.5 -0.895 -1.5 -2 0 -1.105 0.672 -2 1.5 -2 0.828 0 1.5 0.895 1.5 2 z"
           transform="matrix(15.333333,0,0,11.5,414.99999,878.8622)"
           fill="#1890d0"
           id="path14" />
      </g>
    </clipPath>
    <clipPath
       id="clipPath-789227257">
      <g
         transform="translate(0,-1004.3622)"
         id="g17">
        <path
           d="m -24 13 c 0 1.105 -0.672 2 -1.5 2 -0.828 0 -1.5 -0.895 -1.5 -2 0 -1.105 0.672 -2 1.5 -2 0.828 0 1.5 0.895 1.5 2 z"
           transform="matrix(15.333333,0,0,11.5,414.99999,878.8622)"
           fill="#1890d0"
           id="path19" />
      </g>
    </clipPath>
    <linearGradient
       id="1-4"
       gradientUnits="userSpaceOnUse"
       y1="15"
       x2="0"
       y2="11"
       gradientTransform="matrix(15.333333,0,0,11.5,414.99999,-125.5)">
      <stop
         id="stop7-4" />
      <stop
         offset="1"
         stop-opacity="0"
         id="stop9-8" />
    </linearGradient>
  </defs>
  <g
     transform="translate(9.9999995e-7,0.0022)"
     id="g21">
    <g
       transform="translate(0,-1004.3622)"
       id="g23">
      <path
         style="opacity:0.05"
         inkscape:connector-curvature="0"
         d="m 25,1006.36 c -12.703,0 -23,10.298 -23,23 0,6.367 2.601,12.12 6.781,16.281 4.085,3.712 9.514,5.969 15.469,5.969 12.703,0 23,-10.297 23,-23 0,-5.954 -2.256,-11.384 -5.969,-15.469 -4.165,-4.181 -9.914,-6.781 -16.281,-6.781 z m 16.281,6.781 c 3.854,4.113 6.219,9.637 6.219,15.719 0,12.703 -10.297,23 -23,23 -6.081,0 -11.606,-2.364 -15.719,-6.219 4.16,4.144 9.883,6.719 16.219,6.719 12.703,0 23,-10.297 23,-23 0,-6.335 -2.575,-12.06 -6.719,-16.219 z"
         id="path25" />
      <path
         style="opacity:0.1"
         inkscape:connector-curvature="0"
         d="m 41.28,1013.14 c 3.712,4.085 5.969,9.514 5.969,15.469 0,12.703 -10.297,23 -23,23 -5.954,0 -11.384,-2.256 -15.469,-5.969 4.113,3.854 9.637,6.219 15.719,6.219 12.703,0 23,-10.297 23,-23 0,-6.081 -2.364,-11.606 -6.219,-15.719 z"
         id="path27" />
      <path
         style="opacity:0.2"
         inkscape:connector-curvature="0"
         transform="matrix(15.333333,0,0,11.5,415.24999,879.11222)"
         d="m -24,13 a 1.5,2 0 1 1 -3,0 1.5,2 0 1 1 3,0 z"
         id="path29" />
    </g>
  </g>
  <g
     transform="translate(9.9999995e-7,0.0022)"
     id="g31">
    <g
       transform="translate(0,-1004.3622)"
       id="g33">
      <path
         style="fill:#eeeeee"
         inkscape:connector-curvature="0"
         d="m -24,13 c 0,1.105 -0.672,2 -1.5,2 -0.828,0 -1.5,-0.895 -1.5,-2 0,-1.105 0.672,-2 1.5,-2 0.828,0 1.5,0.895 1.5,2 z"
         transform="matrix(15.333333,0,0,11.5,414.99999,878.8622)"
         id="path35" />
    </g>
  </g>
  <g
     transform="translate(9.9999995e-7,0.0022)"
     id="g37">
    <path
       style="opacity:0.15;fill:url(#1-4)"
       inkscape:connector-curvature="0"
       d="M 47,24 C 47,36.703 36.703,47 24,47 11.297,47 1,36.703 1,24 1,11.297 11.297,1 24,1 36.703,1 47,11.297 47,24 z"
       id="path39" />
  </g>
  <g
     transform="translate(9.9999995e-7,0.0022)"
     id="g69">
    <path
       style="opacity:0.1"
       inkscape:connector-curvature="0"
       d="m 40.03,7.531 c 3.712,4.084 5.969,9.514 5.969,15.469 0,12.703 -10.297,23 -23,23 C 17.045,46 11.615,43.744 7.53,40.031 11.708,44.322 17.54,47 23.999,47 c 12.703,0 23,-10.298 23,-23 0,-6.462 -2.677,-12.291 -6.969,-16.469 z"
       id="path71" />
  </g>
  <g
     id="g41">
    <g
       clip-path="url(#clipPath-780286048)"
       id="g43">
      <g
         transform="translate(0,1)"
         id="g45">
        <g
           opacity="0.1"
           id="g47">
          <g
             id="g49">
            <path
               d="m 24 9.03 c 0.258 0.941 -0.203 1.211 -0.531 1.594 c 0.676 0.328 1.082 0.574 1.125 -0.125 c -0.055 -0.344 -0.262 -0.313 -0.594 -1.469 m -3.125 2.375 c 1.039 0.855 1.938 1.75 1 3.03 c -0.734 0.602 -2.262 0.977 -2.219 -0.875 c -0.379 0.621 -0.383 1.395 -0.188 2.25 c 0.051 0.215 0.145 0.387 0.25 0.531 c 1.797 1.332 1.895 1.605 2.156 2.125 c 1.66 2.965 -0.98 5.066 -1.156 5.344 l -0.125 0.25 c 1.895 2.785 3.691 2.566 4.813 2.563 c 1.316 -0.102 4.422 -1.988 3.03 -5.625 c -0.039 1.914 -1.586 0.887 -1.906 0.25 c -0.277 -0.301 -0.68 -2.711 0.563 -2.777 c 0.305 -0.148 -0.246 -2.313 -2.063 -3.348 c 2.531 1.938 -0.895 4.906 -1.75 1.875 c -0.051 -0.176 0.008 -4.496 1.875 -3.5 c -0.891 -1.469 -2.289 -2.203 -4.281 -2.094 m 5.75 0.004 c -1.141 0.516 -0.691 3.313 0.063 3.375 c -0.285 -0.75 -0.609 -1.152 -0.063 -3.375 m -7.156 5.438 c -0.199 1.113 -0.211 2.285 0.25 2.781 c 0.547 0.648 0.879 0.492 1.25 0.469 c 0.164 -0.082 0.023 -0.199 -0.188 -0.344 c 0.027 -0.055 0.254 -0.082 0.438 -0.094 c 0.066 -0.066 0.129 -0.125 0.094 -0.25 c -0.031 0.098 -0.117 0.148 -0.25 0.188 m 7.344 0.344 c -0.059 0.031 -0.074 0.137 -0.031 0.219 c 0.047 0.082 0.129 0.125 0.188 0.094 c 0.059 -0.031 0.047 -0.137 0 -0.219 c -0.043 -0.082 -0.098 -0.125 -0.156 -0.094 m -7.438 5.656 c -0.027 0.004 0.711 0.941 0.688 0.875 c -0.008 -0.031 0.289 -0.359 0.344 -0.313 c -0.262 -0.148 -0.629 -0.348 -1.031 -0.563 m 0 0"
               fill="#000"
               stroke="none"
               fill-rule="nonzero"
               fill-opacity="1"
               id="path51" />
            <path
               d="m 23.906 20.844 c -0.508 0.035 -0.789 0.363 -0.938 0.813 l 1.844 0.156 c -0.047 -0.434 -0.238 -0.82 -0.906 -0.969 m -1.094 1.844 c -0.008 0.117 -0.027 0.223 -0.031 0.344 l 0 0.188 l 2 0.094 l 0.031 -0.344 c -0.004 -0.035 0 -0.082 0 -0.125 m -2.063 0.969 l -0.031 0.625 l 1.906 0.094 l 0.063 -0.625 m -2 0.844 l -0.625 14.03 c 0.637 -0.387 0.945 -1.902 1.313 -3.25 l 1.219 -10.688 m -1.906 -0.094"
               fill="#000"
               stroke="none"
               fill-rule="nonzero"
               fill-opacity="1"
               id="path53" />
          </g>
        </g>
      </g>
    </g>
  </g>
  <g
     id="g55">
    <g
       clip-path="url(#clipPath-789227257)"
       id="g57">
      <g
         id="g59">
        <path
           d="m 24 9.03 c 0.258 0.941 -0.203 1.211 -0.531 1.594 c 0.676 0.328 1.082 0.574 1.125 -0.125 c -0.055 -0.344 -0.262 -0.313 -0.594 -1.469 m -3.125 2.375 c 1.039 0.855 1.938 1.75 1 3.03 c -0.734 0.602 -2.262 0.977 -2.219 -0.875 c -0.379 0.621 -0.383 1.395 -0.188 2.25 c 0.051 0.215 0.145 0.387 0.25 0.531 c 1.797 1.332 1.895 1.605 2.156 2.125 c 1.66 2.965 -0.98 5.066 -1.156 5.344 l -0.125 0.25 c 1.895 2.785 3.691 2.566 4.813 2.563 c 1.316 -0.102 4.422 -1.988 3.03 -5.625 c -0.039 1.914 -1.586 0.887 -1.906 0.25 c -0.277 -0.301 -0.68 -2.711 0.563 -2.777 c 0.305 -0.148 -0.246 -2.313 -2.063 -3.348 c 2.531 1.938 -0.895 4.906 -1.75 1.875 c -0.051 -0.176 0.008 -4.496 1.875 -3.5 c -0.891 -1.469 -2.289 -2.203 -4.281 -2.094 m 5.75 0.004 c -1.141 0.516 -0.691 3.313 0.063 3.375 c -0.285 -0.75 -0.609 -1.152 -0.063 -3.375 m -7.156 5.438 c -0.199 1.113 -0.211 2.285 0.25 2.781 c 0.547 0.648 0.879 0.492 1.25 0.469 c 0.164 -0.082 0.023 -0.199 -0.188 -0.344 c 0.027 -0.055 0.254 -0.082 0.438 -0.094 c 0.066 -0.066 0.129 -0.125 0.094 -0.25 c -0.031 0.098 -0.117 0.148 -0.25 0.188 m 7.344 0.344 c -0.059 0.031 -0.074 0.137 -0.031 0.219 c 0.047 0.082 0.129 0.125 0.188 0.094 c 0.059 -0.031 0.047 -0.137 0 -0.219 c -0.043 -0.082 -0.098 -0.125 -0.156 -0.094 m -7.438 5.656 c -0.027 0.004 0.711 0.941 0.688 0.875 c -0.008 -0.031 0.289 -0.359 0.344 -0.313 c -0.262 -0.148 -0.629 -0.348 -1.031 -0.563 m 0 0"
           fill="#f93"
           stroke="none"
           fill-rule="nonzero"
           fill-opacity="1"
           id="path61" />
        <path
           d="m 23.906 20.844 c -0.508 0.035 -0.789 0.363 -0.938 0.813 l 1.844 0.156 c -0.047 -0.434 -0.238 -0.82 -0.906 -0.969 m -1.094 1.844 c -0.008 0.117 -0.027 0.223 -0.031 0.344 l 0 0.188 l 2 0.094 l 0.031 -0.344 c -0.004 -0.035 0 -0.082 0 -0.125 m -2.063 0.969 l -0.031 0.625 l 1.906 0.094 l 0.063 -0.625 m -2 0.844 l -0.625 14.03 c 0.637 -0.387 0.945 -1.902 1.313 -3.25 l 1.219 -10.688 m -1.906 -0.094"
           fill="#2f2f2f"
           stroke="none"
           fill-rule="nonzero"
           fill-opacity="1"
           id="path63" />
      </g>
    </g>
  </g>
</svg>
